X:1
T:Title
%%score { ( 1 4 ) | ( 2 3 ) }
L:1/8
Q:1/4=90
M:6/8
K:F
V:1 treble nm="Grand Piano"
V:4 treble 
V:2 bass 
V:3 bass 
V:1
 [Ac]2 [Bd] [Ac][GB][A,FA] | [GB]2 [Ac] [GB][FA][EG] | [FA]2 [FA] [Ac][GB][FA] | %3
w: Theodore~F.~Seward * * * *|||
 [EG]A[CGB] [CFA]3 | [Ac]2 [Bd] [Ac][GB][A,FA] | [GB]2 [Ac] [GB][FA][EG] | z3 .B3 | F2 E F3 | %8
w: |||||
 [EG]2 [EG] [EG][EG][EG] | A2 A A .A2 | AAA G .G2 | [=B,DF][B,DF][G,DF] [G,CE]3 | %12
w: ||||
 [EG]2 [EG] [EG][EG][EG] | A2 A A .A2 | AAA G .G2 | [D=B][Ec][Fd] [Ec]3 | %16
w: ||||
 [Ac]2 [Bd] [Ac][GB][A,FA] | [GB]2 [Ac] [GB][FA][EG] | [FA]2 [FA] [Ac][GB][FA] | %19
w: |||
 [EG]A[CGB] [CFA]3 | [Ac]2 [Bd] [Ac][GB][A,FA] | [GB]2 [Ac] [GB][FA][EG] | z3 .B3 | %23
w: ||||
[M:7/4] F2 E F3 z2 z2 z4 |] %24
w: |
V:2
 F,2 F, F,F,F, | [C,C]2 [C,C] [C,C]2 [C,C] | [F,C]2 [F,C] [F,C]2 [F,C] | z FC, F,3 | %4
 F,2 F, F,F,F, | [C,C]2 [C,C] [C,C]2 [C,C] | [F,CF]2 [F,F] .[B,,G,]2 [B,,B,] | %7
 [C,A,C]2 [C,G,C] [F,A,C]3 | [C,C]2 [C,C] [C,C][C,C][C,C] | [F,CF]2 [F,CF] [F,CF] .[F,CF]2 | %10
 [F,CF][F,CF][F,CF] [G,CE] .[G,CE]2 | G,,G,,G,, C,3 | [C,C]2 [C,C] [C,C][C,C][C,C] | %13
 [F,CF]2 [F,CF] [F,CF] .[F,CF]2 | [F,CF][F,CF][F,CF] [G,CE] .[G,E]2 | %15
 [G,,G,][G,,G,][G,,G,] [C,G,]3 | F,2 F, F,F,F, | [C,C]2 [C,C] [C,C]2 [C,C] | %18
 [F,C]2 [F,C] [F,C]2 [F,C] | z FC, F,3 | F,2 F, F,F,F, | [C,C]2 [C,C] [C,C]2 [C,C] | %22
 [F,CF]2 [F,F] .[B,,G,]2 [B,,B,] |[M:7/4] [C,A,C]2 [C,G,C] [F,A,C]3 z2 z2 z4 |] %24
V:3
 x6 | x6 | x6 | .[C,C]3 z3 | x6 | x6 | x6 | x6 | x6 | x6 | x6 | x6 | x6 | x6 | x6 | x6 | x6 | x6 | %18
 x6 | .[C,C]3 z3 | x6 | x6 | x6 |[M:7/4] x14 |] %24
V:4
 x6 | x6 | x6 | x6 | x6 | x6 | A2 A D-[A,DA][DG] | x6 | x6 | x6 | x6 | x6 | x6 | x6 | x6 | x6 | %16
 x6 | x6 | x6 | x6 | x6 | x6 | A2 A D-[A,DA][DG] |[M:7/4] x14 |] %24

